Numix-GalliumOS/32/mimetypes/application-executable.svg

<?xml version="1.0" encoding="UTF-8" standalone="no"?>
<svg
   xmlns:dc="http://purl.org/dc/elements/1.1/"
   xmlns:cc="http://creativecommons.org/ns#"
   xmlns:rdf="http://www.w3.org/1999/02/22-rdf-syntax-ns#"
   xmlns:svg="http://www.w3.org/2000/svg"
   xmlns="http://www.w3.org/2000/svg"
   xmlns:sodipodi="http://sodipodi.sourceforge.net/DTD/sodipodi-0.dtd"
   xmlns:inkscape="http://www.inkscape.org/namespaces/inkscape"
   width="32"
   height="32"
   viewBox="0 0 32 32"
   id="svg2"
   version="1.1"
   inkscape:version="0.48.5 r10040"
   sodipodi:docname="application-executable.svg">
  <metadata
     id="metadata14">
    <rdf:RDF>
      <cc:Work
         rdf:about="">
        <dc:format>image/svg+xml</dc:format>
        <dc:type
           rdf:resource="http://purl.org/dc/dcmitype/StillImage" />
      </cc:Work>
    </rdf:RDF>
  </metadata>
  <defs
     id="defs12" />
  <sodipodi:namedview
     pagecolor="#ffffff"
     bordercolor="#666666"
     borderopacity="1"
     objecttolerance="10"
     gridtolerance="10"
     guidetolerance="10"
     inkscape:pageopacity="0"
     inkscape:pageshadow="2"
     inkscape:window-width="1280"
     inkscape:window-height="970"
     id="namedview10"
     showgrid="true"
     inkscape:zoom="16"
     inkscape:cx="32.841065"
     inkscape:cy="11.556965"
     inkscape:window-x="0"
     inkscape:window-y="0"
     inkscape:window-maximized="1"
     inkscape:current-layer="svg2">
    <inkscape:grid
       type="xygrid"
       id="grid2991" />
  </sodipodi:namedview>
  <path
     style="fill:#eee"
     d="M 5.371094 4 C 4.6875 4 4 4.6875 4 5.371094 L 4 26.667969 C 4 27.3125 4.6875 28 5.332031 28 L 26.667969 28 C 27.3125 28 28 27.3125 28 26.667969 L 28 5.332031 C 28 4.6875 27.3125 4 26.667969 4 Z "
     id="path4" />
  <path
     style="fill:#888"
     d="M 15.550781 8.070312 C 14.214844 8.5 15.386719 10.488281 13.472656 11.460938 C 11.289062 12.574219 10.203125 9.765625 8.890625 11.769531 C 7.578125 13.777344 10.699219 13.464844 10.613281 15.828125 C 10.523438 18.1875 7.433594 17.6875 8.59375 19.769531 C 9.753906 21.851562 11.042969 19.117188 13.140625 20.367188 C 15.238281 21.613281 13.230469 23.921875 15.703125 24 C 18.175781 24.074219 16.339844 21.652344 18.527344 20.539062 C 20.710938 19.425781 21.796875 22.234375 23.109375 20.230469 C 24.421875 18.222656 21.300781 18.535156 21.386719 16.175781 C 21.476562 13.8125 24.566406 14.316406 23.40625 12.230469 C 22.246094 10.148438 20.957031 12.882812 18.859375 11.636719 C 16.761719 10.386719 18.769531 8.078125 16.296875 8.003906 C 15.988281 7.992188 15.742188 8.011719 15.550781 8.070312 Z M 15.574219 14.082031 C 16.679688 13.855469 17.761719 14.53125 17.996094 15.59375 C 18.230469 16.652344 17.527344 17.695312 16.425781 17.917969 C 15.320312 18.144531 14.238281 17.46875 14.003906 16.40625 C 13.769531 15.347656 14.472656 14.308594 15.574219 14.082031 Z "
     id="path6" />
  <path
     style="fill:#aaaaaa"
     d="M 5.667969,4 C 5.222656,4 4.8828127,4 4.4335935,4.425781 4,4.8203127 4,5.222656 4,5.667969 L 4,26.375 C 4,26.808594 3.99034,27.193015 4.4242782,27.568857 4.9220697,28 5.191406,28 5.625,28 l 20.75,0 c 0.433594,0 0.738803,0 1.222656,-0.4375 C 28.009592,27.190028 28,26.808594 28,26.375 L 28,5.625 C 28,5.191406 27.991616,4.8252754 27.582031,4.4296875 27.137141,4 26.808594,4 26.375,4 z M 6,5 26.021484,5 c 0.195312,0 0.449219,0.117187 0.644531,0.3125 0.195313,0.195312 0.3125,0.449219 0.3125,0.644531 l 0,20.064453 c 0,0.195312 -0.117187,0.449219 -0.3125,0.644531 -0.195312,0.195313 -0.449219,0.3125 -0.644531,0.3125 l -20.0429685,0 c -0.195312,0 -0.449219,-0.117187 -0.644531,-0.3125 -0.195313,-0.195312 -0.3122904,-0.449219 -0.3125,-0.644531 L 5,6 C 4.9997611,5.7773431 5.113281,5.507812 5.3125,5.3125 5.507812,5.113281 5.777343,5 6,5 z"
     id="path8"
     inkscape:connector-curvature="0"
     sodipodi:nodetypes="scsssssssssssssssssssssscs" />
</svg>

<svg xmlns="http://www.w3.org/2000/svg" viewBox="0 0 32 32">
 <path d="m 5.371 4 c -0.684 0 -1.371 0.688 -1.371 1.371 l 0 21.297 c 0 0.645 0.688 1.332 1.332 1.332 l 21.336 0 c 0.645 0 1.332 -0.688 1.332 -1.332 l 0 -21.336 c 0 -0.645 -0.688 -1.332 -1.332 -1.332 Z" style="fill:#eee"/>
 <path d="m 15.551 8.07 c -1.336 0.43 -0.164 2.418 -2.078 3.391 c -2.184 1.113 -3.27 -1.695 -4.582 0.309 c -1.313 2.01 1.809 1.695 1.723 4.059 c -0.09 2.359 -3.18 1.859 -2.02 3.941 c 1.16 2.082 2.449 -0.652 4.547 0.598 c 2.098 1.246 0.09 3.555 2.563 3.633 c 2.473 0.074 0.637 -2.348 2.824 -3.461 c 2.184 -1.113 3.27 1.695 4.582 -0.309 c 1.313 -2.01 -1.809 -1.695 -1.723 -4.055 c 0.09 -2.363 3.18 -1.859 2.02 -3.945 c -1.16 -2.082 -2.449 0.652 -4.547 -0.594 c -2.098 -1.25 -0.09 -3.559 -2.563 -3.633 c -0.309 -0.012 -0.555 0.008 -0.746 0.066 m 0.023 6.01 c 1.105 -0.227 2.188 0.449 2.422 1.512 c 0.234 1.059 -0.469 2.102 -1.57 2.324 c -1.105 0.227 -2.188 -0.449 -2.422 -1.512 c -0.234 -1.059 0.469 -2.098 1.57 -2.324 Z" style="fill:#888"/>
 <path d="m 5.668 4 c -0.445 0 -0.785 0 -1.234 0.426 -0.434 0.395 -0.434 0.797 -0.434 1.242 l 0 20.707 c 0 0.434 -0.01 0.818 0.424 1.194 0.498 0.431 0.767 0.431 1.201 0.431 l 20.75 0 c 0.434 0 0.739 0 1.223 -0.438 c 0.412 -0.372 0.402 -0.754 0.402 -1.188 l 0 -20.75 c 0 -0.434 -0.008 -0.8 -0.418 -1.195 -0.445 -0.43 -0.773 -0.43 -1.207 -0.43 z m 0.332 1 20.02 0 c 0.195 0 0.449 0.117 0.645 0.313 0.195 0.195 0.313 0.449 0.313 0.645 l 0 20.06 c 0 0.195 -0.117 0.449 -0.313 0.645 -0.195 0.195 -0.449 0.313 -0.645 0.313 l -20.04 0 c -0.195 0 -0.449 -0.117 -0.645 -0.313 -0.195 -0.195 -0.312 -0.449 -0.313 -0.645 l -0.021 -20.02 c 0 -0.223 0.113 -0.492 0.313 -0.688 0.195 -0.199 0.465 -0.313 0.688 -0.313 z" style="fill:#aaa"/>
</svg>
